src/components/WarCrimes/icons/crimes/child-abuse.svg

<?xml version="1.0" encoding="UTF-8" standalone="no"?>
<svg width="100px" height="132px" viewBox="0 0 100 132" version="1.1" xmlns="http://www.w3.org/2000/svg" xmlns:xlink="http://www.w3.org/1999/xlink">
    <!-- Generator: Sketch 41.2 (35397) - http://www.bohemiancoding.com/sketch -->
    <title>Child abuse </title>
    <desc>Created with Sketch.</desc>
    <defs></defs>
    <g id="Page-1" stroke="none" stroke-width="1" fill="none" fill-rule="evenodd">
        <g id="Child-abuse-">
            <g id="Child-abuse" transform="translate(2.000000, 2.000000)">
                <g id="Group">
                    <ellipse id="Oval" fill="#FFFFFF" transform="translate(87.899394, 89.899394) rotate(-44.740708) translate(-87.899394, -89.899394) " cx="87.8993936" cy="89.8993936" rx="7" ry="7"></ellipse>
                    <path d="M80.5640619,121.452357 L70.5543715,113.807453 C73.0541529,110.274722 76.9702227,107.291644 79.3197471,104.80448 C81.5873934,102.789573 82.51476,99.2606393 80.7257641,97.4075327 C79.4576783,96.0938569 77.1785867,95.3228243 74.6987613,95.9957254 C75.4934793,96.1832265 76.142049,96.3897114 76.5916458,96.5506352 L76.6418292,96.5690348 L76.6538615,96.5728316 L76.6720567,96.5795489 C78.1816687,97.1592836 78.9355943,98.8529266 78.3536424,100.355272 C77.92048,101.474145 76.8196723,102.225318 75.6140957,102.225318 C75.2545944,102.225318 74.9000821,102.160189 74.5620041,102.030807 L74.5602433,102.030223 L74.5267876,102.018249 C74.4827671,102.002478 74.4111603,101.977653 74.314315,101.946403 C74.1666994,101.898797 73.8556207,101.803878 73.4462294,101.703703 C72.9015482,101.571692 71.8174684,101.349728 70.6773356,101.349728 L70.6415322,101.349728 C69.774914,101.349728 68.9799025,101.47911 68.3413108,101.724147 C67.7074146,101.972104 66.7821023,102.267374 66.2617791,102.737587 C66.0410894,103.002775 65.8259755,103.271761 65.6152637,103.545711 C65.7593577,103.249856 65.9137232,102.994014 66.0721972,102.77059 C66.0719038,102.763872 66.0710233,102.755987 66.0704364,102.749269 C66.1080006,102.706921 66.1470322,102.666033 66.1819552,102.620472 C66.7421903,101.897337 67.3719779,101.475605 68.1297186,101.180043 C68.8833507,100.890614 69.7684576,100.763861 70.6609013,100.765613 C71.7391118,100.763861 72.809692,100.948149 73.5853344,101.136818 C73.9727154,101.231153 74.2873157,101.324319 74.4959732,101.390909 C74.6001552,101.424787 74.6782184,101.451657 74.7251737,101.468596 C74.7483578,101.476774 74.7647922,101.482323 74.7724224,101.485535 C75.9815207,101.948155 77.339702,101.348852 77.8060265,100.145282 C78.2726445,98.9417122 77.6704432,97.5891926 76.4604645,97.1248208 C76.3090337,97.0769233 73.8400668,96.1049551 70.6614882,96.0918125 C69.3485014,96.0938569 67.89729,96.2658789 66.446959,96.8178681 C66.1417497,96.9335229 65.8374209,97.0716663 65.5360267,97.2252887 C64.4085132,97.7985981 63.3261942,98.6368039 62.4501848,99.7845909 C62.4495979,99.7854671 62.449011,99.7863432 62.448424,99.7872194 C61.0573741,101.602943 60.2221571,104.053307 60.0384446,107.20169 C60.1452679,107.214833 60.2550258,107.228267 60.3694793,107.241702 C61.1592083,107.334576 62.1106395,107.425698 63.0576687,107.47272 C62.9030098,107.749882 62.7486443,108.034055 62.5939854,108.325236 C61.6560538,108.266825 60.7460019,108.171906 60.0067498,108.081076 C60.0035216,108.245504 60,108.409057 60,108.57699 C60,109.056549 60.0132062,109.552171 60.0410859,110.067361 C60.0824652,110.823498 60.481585,111.474787 61.0650043,111.87111 C60.2867206,114.982401 61.6322827,116.3945 63.4206916,117.558643 C63.4406476,117.574414 63.4582559,117.591937 63.4785053,117.607416 L67.5251695,120.698556 L64.3421889,120.698556 C62.3163623,120.698556 60.6738082,122.333203 60.6738082,124.349278 C60.6738082,126.365061 62.3163623,128 64.3421889,128 L78.3307517,128 C79.9037533,128 81.298325,127.005543 81.804855,125.523058 C82.3102111,124.039405 81.8121917,122.405049 80.5640619,121.452357 Z" id="Shape" fill="#FFFFFF"></path>
                    <path d="M55.3284487,54.9228074 C57.4,53.8664877 58.2268333,51.3208525 57.1771282,49.2383484 C57.0320513,48.9502131 56.8559615,48.6879836 56.6588462,48.4495451 L81.658859,1.36718852 L79.1147564,0 L54.1631026,46.9924795 C53.2947436,46.8365164 52.3717179,46.9480697 51.5243846,47.3794795 C47.5179487,49.4228607 44.3951154,50.1064549 42.0055513,50.1064549 C39.5366154,50.0942951 37.7620513,49.4281475 36.1977436,48.3924467 C33.873359,46.8550205 32.1135128,44.2374836 31.0348974,41.9170697 C30.4934872,40.7655861 30.1166026,39.7134959 29.8853205,38.9754467 C29.7702051,38.6058934 29.6903077,38.3156434 29.6414231,38.1306025 C29.6172436,38.0375533 29.6014744,37.9714672 29.5925385,37.9355164 C29.588859,37.9180697 29.5867564,37.9074959 29.5857051,37.9043238 C29.5110641,37.5633197 29.3933205,37.2455779 29.2466667,36.9458115 C28.6858077,34.9558279 27.5367564,33.3089631 25.7690256,32.4831516 C21.7688974,30.6142377 15.3550256,31.5949549 11.2523974,37.8477541 C15.1763077,35.7589057 18.7343718,35.2095984 20.6198462,35.0763689 L20.6992179,35.0700246 L20.7260256,35.0679098 L20.7580897,35.0668525 C20.8316795,35.0636803 20.9057949,35.0615656 20.978859,35.0615656 C23.8041795,35.0615656 26.1101667,37.2868156 26.2279103,40.127459 C26.3488077,43.0310164 24.1001154,45.4999918 21.2132949,45.6300492 L21.0987051,45.6411516 C20.9331282,45.657541 20.6755641,45.6908484 20.3428333,45.7495328 C19.7010256,45.8632008 18.7028333,46.0926516 17.5874231,46.5319918 C14.7941667,47.6480533 12.7730769,49.3789795 11.4132436,51.8199344 C10.1049231,54.1847582 9.46521795,57.0951885 9.46101282,60.7124754 C9.45996154,63.7566639 9.94039744,67.2354344 10.8907564,71.0530943 C11.2303205,72.4234549 11.0200641,73.844041 10.298359,75.0552664 C9.67810256,76.0941393 8.74351282,76.868668 7.63073077,77.2847459 L7.63073077,122.031357 C7.63073077,125.681422 10.5722179,128.64102 14.2012436,128.64102 C17.8286923,128.64102 20.7712308,125.681422 20.7712308,122.031357 L20.7712308,70.2209385 C20.7712308,69.8762336 20.7370641,69.5405164 20.6866026,69.2111434 C21.5644231,62.7368238 24.0980128,56.0684754 26.3756154,50.4622623 C27.7070641,52.2360123 29.3859615,53.9865 31.5268974,55.4271762 C34.2838846,57.2939754 37.8477308,58.5654713 41.9440513,58.5654713 L42.0045,58.5654713 C44.0597564,58.5654713 46.2290769,58.2609467 48.5145641,57.6291639 L45.6850385,62.9572869 L48.2286154,64.323418 L52.5288846,56.2260246 C53.4456026,55.8406107 54.3786154,55.4081434 55.3284487,54.9228074 Z" id="Shape" fill="#D0011B"></path>
                    <ellipse id="Oval" fill="#D0011B" transform="translate(31.217678, 17.259886) rotate(-65.977592) translate(-31.217678, -17.259886) " cx="31.2176784" cy="17.2598858" rx="10.9361069" ry="11"></ellipse>
                    <path d="M6.81125641,76.4388443 C9.06415385,75.8720902 10.4345,73.5754672 9.87048718,71.3100369 C8.82814103,67.1164795 8.40867949,63.6128607 8.41025641,60.7124754 C8.41603846,56.398377 9.31173077,53.4461803 10.4970513,51.3034057 C12.272141,48.1180574 14.8651282,46.4833525 17.2047564,45.5475738 C18.3622179,45.0913156 19.4240128,44.8391311 20.1614872,44.7090738 C20.5304872,44.6429877 20.8159103,44.6080943 20.992,44.5901189 C21.0803077,44.5806025 21.1391795,44.5769016 21.1680897,44.5737295 L21.1680897,44.5737295 C23.4819615,44.4695779 25.2765,42.5002131 25.1797821,40.1718689 C25.0820128,37.8382377 23.1224231,36.0258934 20.8027692,36.1231721 L20.8011923,36.1231721 C20.4038077,36.1612377 15.5789487,36.3346475 10.3651154,39.5739221 C7.77265385,41.1954098 5.10607692,43.6548689 3.15542308,47.1769918 C1.19530769,50.6932992 -0.00578205128,55.2003689 4.29992223e-13,60.7124754 C4.29992223e-13,64.428627 0.531423077,68.6137254 1.71201282,73.361877 C2.18982051,75.2836598 3.9039359,76.5662582 5.78783333,76.5662582 C6.12582051,76.5657295 6.4690641,76.5244918 6.81125641,76.4388443 Z" id="Shape" fill="#D0011B"></path>
                </g>
            </g>
        </g>
    </g>
</svg>

<svg width="100" height="132" viewBox="0 0 100 132" xmlns="http://www.w3.org/2000/svg"><title>Child abuse</title><g transform="translate(2 2)" fill="none" fill-rule="evenodd"><ellipse fill="#FFF" transform="rotate(-44.741 87.9 89.9)" cx="87.899" cy="89.899" rx="7" ry="7"/><path d="M80.564 121.452l-10.01-7.645c2.5-3.532 6.416-6.515 8.766-9.003 2.267-2.014 3.195-5.543 1.406-7.396-1.268-1.314-3.547-2.085-6.027-1.412.794.187 1.443.394 1.893.555l.05.018.012.004.018.007a2.92 2.92 0 0 1 1.682 3.775 2.952 2.952 0 0 1-2.74 1.87c-.36 0-.714-.065-1.052-.194h-.002l-.033-.013a12.973 12.973 0 0 0-1.08-.315c-.545-.131-1.63-.353-2.77-.353h-.035c-.867 0-1.662.13-2.3.374-.635.248-1.56.543-2.08 1.014-.22.265-.436.534-.647.808.144-.296.299-.552.457-.775l-.002-.022c.038-.042.077-.083.112-.129.56-.723 1.19-1.144 1.948-1.44.753-.29 1.638-.416 2.53-.414 1.08-.002 2.15.182 2.925.37.388.095.702.188.911.255a8.1 8.1 0 0 1 .23.078c.022.008.039.013.046.017a2.352 2.352 0 0 0 3.034-1.34 2.333 2.333 0 0 0-1.346-3.021c-.151-.048-2.62-1.02-5.799-1.033-1.312.002-2.764.174-4.214.726-.305.116-.61.254-.911.407a8.992 8.992 0 0 0-3.088 2.562c-1.39 1.816-2.226 4.266-2.41 7.415l.331.04c.79.093 1.742.184 2.689.23-.155.278-.31.562-.464.853a44.06 44.06 0 0 1-2.587-.244c-.003.165-.007.328-.007.496 0 .48.013.975.041 1.49a2.33 2.33 0 0 0 1.024 1.804c-.778 3.111.567 4.523 2.356 5.688.02.015.037.033.058.048l4.046 3.092h-3.183a3.66 3.66 0 0 0-3.668 3.65A3.66 3.66 0 0 0 64.342 128h13.989a3.665 3.665 0 0 0 3.474-2.477 3.638 3.638 0 0 0-1.24-4.07z" fill="#FFF"/><path d="M55.328 54.923c2.072-1.057 2.899-3.602 1.85-5.685a4.208 4.208 0 0 0-.52-.788l25-47.083L79.116 0 54.163 46.992a4.167 4.167 0 0 0-2.639.387c-4.006 2.044-7.129 2.727-9.518 2.727-2.47-.012-4.244-.678-5.808-1.714-2.325-1.537-4.084-4.155-5.163-6.475a23.72 23.72 0 0 1-1.15-2.942 20.12 20.12 0 0 1-.244-.844c-.024-.093-.04-.16-.048-.195l-.007-.032a4.235 4.235 0 0 0-.34-.958c-.56-1.99-1.71-3.637-3.477-4.463-4-1.869-10.414-.888-14.517 5.365 3.924-2.09 7.482-2.638 9.368-2.772l.08-.006.026-.002.032-.001c.074-.003.148-.005.22-.005 2.826 0 5.132 2.225 5.25 5.065.12 2.904-2.128 5.373-5.015 5.503l-.114.011c-.166.017-.423.05-.756.109-.642.113-1.64.343-2.756.782-2.793 1.116-4.814 2.847-6.174 5.288-1.308 2.365-1.948 5.275-1.952 8.892-.001 3.045.48 6.523 1.43 10.341.34 1.37.13 2.791-.593 4.002a5.225 5.225 0 0 1-2.667 2.23v44.746c0 3.65 2.941 6.61 6.57 6.61 3.628 0 6.57-2.96 6.57-6.61v-51.81c0-.345-.034-.68-.084-1.01.877-6.474 3.411-13.143 5.689-18.749 1.331 1.774 3.01 3.524 5.15 4.965 2.758 1.867 6.322 3.138 10.418 3.138h.06c2.056 0 4.225-.304 6.51-.936l-2.829 5.328 2.544 1.366 4.3-8.097c.917-.385 1.85-.818 2.8-1.303z" fill="#D0011B"/><ellipse fill="#D0011B" transform="rotate(-65.978 31.218 17.26)" cx="31.218" cy="17.26" rx="10.936" ry="11"/><path d="M6.811 76.439c2.253-.567 3.623-2.864 3.06-5.129-1.043-4.194-1.462-7.697-1.46-10.598.005-4.314.9-7.266 2.086-9.409 1.775-3.185 4.368-4.82 6.708-5.755a15.612 15.612 0 0 1 2.956-.839c.37-.066.655-.1.831-.119.088-.01.147-.013.176-.016 2.314-.104 4.108-2.074 4.012-4.402-.098-2.334-2.058-4.146-4.377-4.049H20.8c-.397.038-5.222.212-10.436 3.45a20.877 20.877 0 0 0-7.21 7.604C1.195 50.693-.005 55.2 0 60.712c0 3.717.531 7.902 1.712 12.65a4.21 4.21 0 0 0 4.076 3.204c.338 0 .681-.042 1.023-.127z" fill="#D0011B"/></g></svg>
